svgs/regular/hippo.svg

<svg xmlns="http://www.w3.org/2000/svg" viewBox="0 0 640 512"><!--! Font Awesome Pro 6.3.0 by @fontawesome - https://fontawesome.com License - https://fontawesome.com/license (Commercial License) Copyright 2023 Fonticons, Inc. --><path d="M391 39c9.4-9.4 24.6-9.4 33.9 0l14.2 14.2C449.5 49.9 460.5 48 472 48h32c15.8 0 30.8 3.5 44.2 9.8L559 47c9.4-9.4 24.6-9.4 33.9 0s9.4 24.6 0 33.9l-7 7c13.8 17.7 22 39.9 22 64c0 .3 .1 .6 .3 .7c19.4 17.6 31.7 43 31.7 71.3c0 28.4-12.4 54-32 71.6l0 .4v32c0 13.3-10.7 24-24 24H568c-13.3 0-24-10.7-24-24v-8H480v8c0 13.3-10.7 24-24 24H440c-13.3 0-24-10.7-24-24V314.5c-37.3-13.2-64-48.7-64-90.5c0-16.2 4-31.4 11.1-44.8c2.9-5.6 4.9-11.7 4.9-18V152c0-8.9 1.1-17.5 3.2-25.8c-25.6-9.4-52.7-14.2-80-14.2H256 231.2C147.7 112 80 179.7 80 263.2c0 19.7-4.1 39.2-12.1 57.2L45.9 369.7c-5.4 12.1-19.6 17.6-31.7 12.2S-3.3 362.4 2.1 350.3L24 300.9c5.3-11.9 8-24.7 8-37.7C32 153.2 121.2 64 231.2 64H256h35.2c35.1 0 69.9 6.6 102.6 19.5c1.2-1.4 2.4-2.7 3.7-4L391 73c-9.4-9.4-9.4-24.6 0-33.9zm81 57c-30.9 0-56 25.1-56 56v9.2c0 16.4-5.1 30.3-10.5 40.4c-3.5 6.6-5.5 14.2-5.5 22.4c0 26.5 21.5 48 48 48h96c26.5 0 48-21.5 48-48c0-14.1-6-26.8-15.8-35.6C566 179.2 560 166 560 152c0-30.9-25.1-56-56-56H472zM408 377.6c7.1 4.1 15.3 6.4 24 6.4h24v40c0 30.9-25.1 56-56 56H352c-30.9 0-56-25.1-56-56V407.6c-26.4 5.4-53.6 5.4-80 0V424c0 30.9-25.1 56-56 56H120c-30.9 0-56-25.1-56-56V376c0-13.3 10.7-24 24-24s24 10.7 24 24v48c0 4.4 3.6 8 8 8h40c4.4 0 8-3.6 8-8V376c0-7.6 3.6-14.8 9.8-19.3s14.1-5.8 21.4-3.6l11.3 3.6c29.6 9.3 61.4 9.3 91 0l11.3-3.6c7.3-2.3 15.2-1 21.4 3.6s9.8 11.7 9.8 19.3v48c0 4.4 3.6 8 8 8h48c4.4 0 8-3.6 8-8V377.6zM464 128a16 16 0 1 1 0 32 16 16 0 1 1 0-32zm48 16a16 16 0 1 1 32 0 16 16 0 1 1 -32 0zm-56 56a24 24 0 1 1 0 48 24 24 0 1 1 0-48zm72 24a24 24 0 1 1 48 0 24 24 0 1 1 -48 0z"/></svg>

<svg xmlns="http://www.w3.org/2000/svg" viewBox="0 0 640 512"><!--! Font Awesome Pro 6.2.0 by @fontawesome - https://fontawesome.com License - https://fontawesome.com/license (Commercial License) Copyright 2022 Fonticons, Inc. --><path d="M448 144C448 135.2 455.2 128 464 128C472.8 128 480 135.2 480 144C480 152.8 472.8 160 464 160C455.2 160 448 152.8 448 144zM544 144C544 152.8 536.8 160 528 160C519.2 160 512 152.8 512 144C512 135.2 519.2 128 528 128C536.8 128 544 135.2 544 144zM431.1 224C431.1 210.7 442.7 200 455.1 200C469.3 200 479.1 210.7 479.1 224C479.1 237.3 469.3 248 455.1 248C442.7 248 431.1 237.3 431.1 224zM575.1 224C575.1 237.3 565.3 248 551.1 248C538.7 248 527.1 237.3 527.1 224C527.1 210.7 538.7 200 551.1 200C565.3 200 575.1 210.7 575.1 224zM391 39.03C400.4 29.66 415.6 29.66 424.1 39.03L439.2 53.27C449.5 49.85 460.5 48 472 48H504C519.8 48 534.8 51.53 548.2 57.84L559 47.03C568.4 37.66 583.6 37.66 592.1 47.03C602.3 56.4 602.3 71.6 592.1 80.97L585.1 87.98C599.8 105.6 608 127.9 608 152C608 152.3 608.1 152.6 608.3 152.7C627.8 170.3 640 195.7 640 224C640 252.4 627.6 277.1 607.1 295.6L607.1 296V328C607.1 341.3 597.3 352 583.1 352H567.1C554.7 352 543.1 341.3 543.1 328V320H479.1V328C479.1 341.3 469.3 352 455.1 352H439.1C426.7 352 415.1 341.3 415.1 328V314.5C378.7 301.4 352 265.8 352 224C352 207.8 356 192.6 363.1 179.2C366 173.6 368 167.6 368 161.2V152C368 143.1 369.1 134.5 371.2 126.2C345.6 116.8 318.5 112 291.2 112H231.2C147.7 112 79.1 179.7 79.1 263.2C79.1 282.9 75.86 302.4 67.86 320.4L45.93 369.7C40.55 381.9 26.36 387.3 14.25 381.9C2.138 376.5-3.317 362.4 2.067 350.3L23.1 300.9C29.27 289 31.1 276.2 31.1 263.2C31.1 153.2 121.2 64 231.2 64H291.2C326.3 64 361.1 70.61 393.8 83.46C394.1 82.09 396.2 80.75 397.5 79.44L391 72.97C381.7 63.6 381.7 48.4 391 39.03V39.03zM472 96C441.1 96 416 121.1 416 152V161.2C416 177.6 410.9 191.5 405.5 201.6C402 208.3 400 215.8 400 224C400 250.5 421.5 272 448 272H544C570.5 272 592 250.5 592 224C592 209.9 585.1 197.2 576.2 188.4C565.1 179.2 560 165.1 560 152C560 121.1 534.9 96 504 96H472zM431.1 384H456V424C456 454.9 430.9 480 400 480H352C321.1 480 296 454.9 296 424V407.6C269.6 412.1 242.4 412.1 216 407.6V424C216 454.9 190.9 480 160 480H120C89.07 480 64 454.9 64 424V376C64 362.7 74.75 352 88 352C101.3 352 112 362.7 112 376V424C112 428.4 115.6 432 120 432H160C164.4 432 168 428.4 168 424V376C168 368.4 171.6 361.2 177.8 356.7C183.1 352.1 191.9 350.8 199.2 353.1L210.5 356.7C240.1 365.9 271.9 365.9 301.5 356.7L312.8 353.1C320.1 350.8 328.1 352.1 334.2 356.7C340.4 361.2 344 368.4 344 376V424C344 428.4 347.6 432 352 432H400C404.4 432 408 428.4 408 424V377.6C415.1 381.7 423.3 384 431.1 384H431.1z"/></svg>
